!!!OTL: Graf und Nonne (Die Nonne)
!!!OTL-incipit:Dort da die Rose wuchse,
!!!ARE: Europa, Mitteleuropa, Deutschland
!!!YOR: 8, S. 292
!!    1669 Handschrift aus Leipzig
!!!SCT: Q1155P.
!!!TXL: @@DE
!!!YEM: Copyright 1995, estate of Helmut Schaffrath.
**kern	**text
*ICvox	*
*M4/4	*
*met(c)	*
*k[f#]	*
*G:	*
{(8gL	Dort
8aJ)	.
=1	=1
4b	da
4b	dir
4dd	Ro-
(16ddL	-se
16cc	.
16b	.
16aJ)	.
=2	=2
2b	wuch-
4a}	-se,
{4a	war
=3	=3
4b	mei-
4b	-ne
4cc#	Lieb-
(16cc#L	-ste
16dd	.
16ee	.
16ff#J)	.
=4	=4
2dd	hier...
4r}	.
{4dd	.
=5	=5
4.ee	.
8ff#	.
4gg	.
4dd	.
=6	=6
8eeL	.
8ff#	.
8.ee	.
16ddJ	.
4dd}	.
{4b	.
=7	=7
4cc	.
4b	.
4.a	.
8g	.
=8	=8
2g;	.
4r}	.
==	==
!!!AGN: Liebes - Lied
!! Melodievergleich zu Q0155Q., anderes Lied (genetisch verwandt ?).
!!    Schlusspause ergaenzt.
!!!ONB: ESAC (Essen Associative Code) Database: BALLADE
!!!AMT: simple quadruple
!!!AIN: vox
!!!EED: Helmut Schaffrath
!!!EEV: 1.0
!!!source: Deutsche Volkslieder mit ihren Melodien. Herausgegeben vom Deutschen Volksliedarchiv. Achter Teil. Freiburg/Breisgau 1988.
!!!page: 292
!!!ENC: Anna Maria Matuszewska
!!!EEV: 2025/03/10
*-	*-
